!!!COM: El-Sherif, Mahmoud
!!!CDT: 1912-1990
!!!OTL: National Anthem, Libya (Libyan Arab Jamahiriya)
!!!ENC: Davis, Matthew J.
!!Vocal Line Only
**kern
*clefG2
*k[b-e-a-d-]
*A-:
*M4/4
=1-
1r
=2
1r
=3
1r
=4
1r
=5
1r
=6
1r
=7
1r
=8
1r
=9
1r
=10
1r
=11
1r
=12
1r
=13
1r
=14
8r
8ee-
8ee-
8ee-
=15
4ee-
[4ee-
=16
8ee-]
8ee-
8ee-
8ee-
=17
4ee-
[4ee-
=18
8ee-]
8a-
8.a-
16b-
==!|:19
8cc
8cc
8.dd-
16b-
=20
8cc
8cc
6ee-
6dd-
6ee-
=21
[2cc
=22
8cc]
8a-
8.a-
16b-
=23
8cc
8cc
8.dd-
16b-
=24
8cc
8cc
6ee-
6dd-
6ee-
=25
[2cc
=26
!First Ending
8cc]
8a-
8.a-
16b-
==:|!27
!Second Ending
8cc]
8cc
8cc
8cc
=28
8cc
8cc
8cc
8cc
=29
8cc
8cc
8cc
8dd
=30
[2dd-
=31
8dd-]
8dd-
8dd-
8dd-
=32
8dd-
8dd-
8dd-
8dd-
=33
8dd-
8dd-
8cc
8ee-
=34
2ee-
=35
4ee-
8.ee-
16ff-
=36
2ff-
=37
4cc
8.dd-
16ee-
=38
[2ee-
=39
8ee-]
8ee-
8ee-
8ee-
=40
8ee-
8ee-
8ee-
8ee-
=41
4gg-
[4gg-
=42
8gg-]
8ee-
8ee-
8ee-
=43
2ffn
=44
4ee-
8.ee-
16ee-
=45
[2aa-
=46
4aa-]
4r
==|!
*-
